X: 21050
T: Jumping, The
R: polka
M: 2/4
K: Bminor
|:B,D FB|dc BA|^AB c^A|Bc dB|
B,D FB|dc BA|^AB c^A|1 B2 B2:|2 B2 de||
|:fg fd|ef ec|de dB|c^A F2|
fg fd|ef ec|dB cA|B2 B2:|

